X:1
T:Title
%%score { ( 1 3 ) | ( 2 4 ) }
L:1/8
M:6/8
K:F
V:1 treble nm="Grand Piano"
V:3 treble 
V:2 bass 
V:4 bass 
V:1
 z3 z2[Q:1/4=95] F | A2 A B2 A | [EG]2 [FA] [EG]2 A | c2 A [CF]2 [CEG] | %4
[M:5/8] [CFA]-[CFA]- [CFA]3 |[M:1/8] [CFA] |[M:3/4] [EG]2 [FA] [GB]2 [EG] | A2 B c2 [Fd] | %8
 [CFc]2 [DF] [CFA]2 [B,EG] |[M:5/8] [A,F]-[A,F]- [A,F]3 |[M:1/8] [Fc] |[M:3/4] z2 z c3 | c4- cc | %13
 [Fd]3 [Fd]3 | c4- cF | A2 A B2 B | A2 B c2 [Fd] | [CFc]2 [DF] [CFA]2 [B,EG] | %18
[M:5/8] [A,F]-[A,F]- [A,F]3 |] %19
V:2
 z3 z2 [F,A,] | [F,CF]2 [F,CF] [F,DF]2 [F,CF] | [C,C]2 [C,C] [C,C]2 [F,CF] | %3
 [F,A,F]2 [F,CF] A,,2 C, |[M:5/8] F,-F,- F,3 |[M:1/8] F, |[M:3/4] [C,C]2 [C,C] [C,C]2 [C,C] | %7
 [F,CF]2 [G,CE] [A,CF]2[K:bass] [B,,B,] | A,,2 B,, C,2 C, |[M:5/8] F,-F,- F,3 |[M:1/8] [F,A,] | %11
[M:3/4] [C,A,]3 G, A,B, | [F,A,F]4- [F,A,F][F,A,F] | [B,,B,]3 [D,B,]3 | [F,A,F]4- [F,A,F][F,A,] | %15
 [F,CF]2 [F,CF] [F,DF]2 [F,DF] | [F,CF]2 [G,CE] [A,CF]2[K:bass] [B,,B,] | A,,2 B,, C,2 C, | %18
[M:5/8] F,-F,- F,3 |] %19
V:3
 x6 | x6 | x6 | x6 |[M:5/8] x5 |[M:1/8] x |[M:3/4] x6 | x6 | x6 |[M:5/8] x5 |[M:1/8] x | %11
[M:3/4] [Fc]3 E FG | x6 | x6 | x6 | x6 | x6 | x6 |[M:5/8] x5 |] %19
V:4
 x6 | x6 | x6 | x6 |[M:5/8] x5 |[M:1/8] x |[M:3/4] x6 | x5[K:bass] x | x6 |[M:5/8] x5 |[M:1/8] x | %11
[M:3/4] z2 z C,3 | x6 | x6 | x6 | x6 | x5[K:bass] x | x6 |[M:5/8] x5 |] %19

